public/images/logo-vk.svg

<svg width="212" height="160" viewBox="0 0 212 160" fill="none" xmlns="http://www.w3.org/2000/svg">
<path d="M60 78.16C60 57.368 60 46.972 66.44 40.44C72.88 34 83.276 34 104.16 34H107.84C128.632 34 139.028 34 145.56 40.44C152 46.88 152 57.276 152 78.16V81.84C152 102.632 152 113.028 145.56 119.56C139.12 126 128.724 126 107.84 126H104.16C83.368 126 72.972 126 66.44 119.56C60 113.12 60 102.724 60 81.84V78.16Z" fill="#0077FF"/>
<path d="M108.944 100.24C87.968 100.24 76.008 85.8875 75.548 61.9675H86.036C86.404 79.5395 94.132 86.9915 100.296 88.4635V61.9675H110.232V77.1475C116.304 76.5035 122.652 69.6035 124.768 61.9675H134.704C133.048 71.3515 126.148 78.2515 121.272 81.1035C126.148 83.4035 134.06 89.3835 137.004 100.332H126.148C123.848 93.0635 117.96 87.4515 110.324 86.6235V100.24H108.944Z" fill="white"/>
</svg>

<svg width="212" height="160" viewBox="0 0 212 160" fill="none" xmlns="http://www.w3.org/2000/svg"><path d="M60 78.16c0-20.792 0-31.188 6.44-37.72C72.88 34 83.276 34 104.16 34h3.68c20.792 0 31.188 0 37.72 6.44C152 46.88 152 57.276 152 78.16v3.68c0 20.792 0 31.188-6.44 37.72-6.44 6.44-16.836 6.44-37.72 6.44h-3.68c-20.792 0-31.188 0-37.72-6.44C60 113.12 60 102.724 60 81.84v-3.68z" fill="#07F"/><path d="M108.944 100.24c-20.976 0-32.936-14.352-33.396-38.272h10.488c.368 17.572 8.096 25.023 14.26 26.495V61.968h9.936v15.18c6.072-.644 12.42-7.544 14.536-15.18h9.936c-1.656 9.383-8.556 16.283-13.432 19.135 4.876 2.3 12.788 8.28 15.732 19.229h-10.856c-2.3-7.268-8.188-12.88-15.824-13.708v13.616h-1.38z" fill="#fff"/></svg>
